X:1
T:Master Linley's Hornpipe
C:John Greenwood Manuscript 1770's (N.Y. Historical Society)
Z:Dan Mozell <Dan.Mozell@NASHVILLE.COM> irtrad-l 2000-05-15
M:C
K:D
L:1/8
d/c/ | dA FG Ac eg | fafd {d} c2 BA | GBed cefd | Ed gf {f} e2 dc |
dA FG Ac eg | fafd {d} c2 BA | G3 b afed | A2 c2 d3 :||: b |
abc'd' afed | gbge {d} c2 BA | GBed cefd | Ed gf e2 ab/c'/ |
d'afd Ac'af | Bbge {d} c2 BA | G3 b afed | A2 c2 d2 z :|
